X:1
T: Balmoral
C:
R:Strathspey
Q:128
K:A
M:4/4
L:1/16
|:c2|C3A E3A FA3 E3c|d3B c3A GB3 B3c|C3A E3A FG3 d3f|((3e2c2A2) ((3E2d2B2) cA3 A3c|
C3A E3A FA3 E3c|d3B c3A GB3 B3c|C3A E3A FG3 d3f|((3e2c2A2) ((3E2d2B2) cA3 A2d2|
c3A a3e fa3 e3g|a3e c3A GB3 B3d|c3A a3e fa3 e3f|((3e2c2A2) ((3E2d2B2) ca3 A3d|
c3A a3e fa3 e3g|a3e c3A GB3 B3d|((3A2E2A2) ((3c2A2c2) ((3e2c2e2) ((3a2g2f2)|((3e2c2A2) ((3E2d2B2) cA3 A2:|
